!!!COM: Palestrina, Giovanni Perluigi da
!!!OPR: Missa Sacerdotes Domini
!!!OMD: Sanctus
!!!OTL: Hosanna
**kern	**kern	**kern	**kern	**kern	**kern
*Ibass	*Ibarit	*Itenor	*Itenor	*Icalto	*Icant
!Bassus	!Baritone	!Tenor 2	!Tenor 1	!Altus	!Cantus
*clefF4	*clefF4	*clefGv2	*clefGv2	*clefG2	*clefG2
*k[]	*k[]	*k[]	*k[]	*k[]	*k[]
*G:mix	*G:mix	*G:mix	*G:mix	*G:mix	*G:mix
*M3/2	*M3/2	*M3/2	*M3/2	*M3/2	*M3/2
=62	=62	=62	=62	=62	=62
2.G	1r	1r	1r	1g	1b
4A	.	.	.	.	.
4B	2r	2r	2r	2g	2b
4c	.	.	.	.	.
=63	=63	=63	=63	=63	=63
2d	1r	1r	1r	2f#	2a
2G	.	.	.	1g	2.b
2E	2r	2r	2r	.	.
.	.	.	.	.	4g
=64	=64	=64	=64	=64	=64
2D	1r	1r	2r	2f	4a
.	.	.	.	.	4b
2C	.	.	2g	2e	2cc
2G	2r	2r	2g	2d	2b
=65	=65	=65	=65	=65	=65
2A	1r	1r	2f#	2c	2.cc
1G	.	.	1g	1d	.
.	.	.	.	.	4b
.	2r	2r	.	.	2b
=66	=66	=66	=66	=66	=66
2.D	1r	2r	2.f	4d	1a
.	.	.	.	4e	.
.	.	2f	.	4f	.
4E	.	.	4e	4g	.
4F	2r	2f	2d	2a	2r
4G	.	.	.	.	.
=67	=67	=67	=67	=67	=67
2A	1r	2e	2c	2a	2ee
1D	.	1f	1d	1a	2dd
.	2r	.	.	.	2dd
=68	=68	=68	=68	=68	=68
2A	2r	2.e	1c	2a	2.ee
2.E	2e	.	.	2g	.
.	.	4d	.	.	4ff
.	2e	2c	2r	2g	[2gg
4F	.	.	.	.	.
=69	=69	=69	=69	=69	=69
2G	2d	2B	1r	2g	4gg]
.	.	.	.	.	4ff
2C	1e	1c	.	1g	4ee
.	.	.	.	.	4dd
2C	.	.	2r	.	2cc
=70	=70	=70	=70	=70	=70
1.G	2.d	1B	2r	2.g	4dd
.	.	.	.	.	4cc
.	.	.	2d	.	4b
.	4c	.	.	8f	4a
.	.	.	.	8e	.
.	2B	2r	2d	2d	2g
=71	=71	=71	=71	=71	=71
1r	2A	1r	2c	2e	1a
.	1B	.	1d	4d	.
.	.	.	.	4c	.
2r	.	2r	.	2d	2g#
=72	=72	=72	=72	=72	=72
2r	1A	2r	2.c	1.e	2a
2A	.	2c	.	.	2a
.	.	.	4d	.	.
2A	2r	2c	[2e	.	2a
=73	=73	=73	=73	=73	=73
2E	1r	2B	4e]	1r	2g#
.	.	.	4d	.	.
1A	.	1c	2e	.	2a
.	2r	.	2f#	2r	2a
=74	=74	=74	=74	=74	=74
2G	2r	2.B	1.g	2r	1.dd
1G	2B	.	.	2g	.
.	.	4c	.	.	.
.	2B	[2d	.	2g	.
=75	=75	=75	=75	=75	=75
2D	2A	4d]	1r	2f#	1dd
.	.	4c	.	.	.
1G	1B	2d	.	1g	.
.	.	2e	2r	.	2r
=76	=76	=76	=76	=76	=76
2.F	2.A	1f	2r	2c	2r
.	.	.	2a	1cc	2ff
4G	4B	.	.	.	.
4A	[2c	2r	2a	.	2ff
4B	.	.	.	.	.
=77	=77	=77	=77	=77	=77
2c	4c]	1r	2g	2cc	2ee
.	4B	.	.	.	.
1F	2c	.	1a	2r	1ff
.	2d	2r	.	2a	.
=78	=78	=78	=78	=78	=78
1C	1e	2r	2.g	2.cc	2.ee
.	.	2g	.	.	.
.	.	.	4f	8b	4dd
.	.	.	.	8a	.
2r	2r	2g	2e	2g	4cc
.	.	.	.	.	4b
=79	=79	=79	=79	=79	=79
1r	1r	2f	2d	2a	2.dd
.	.	1g	1e	2g	.
.	.	.	.	.	4cc#
2r	2r	.	.	2e	2dd
=80	=80	=80	=80	=80	=80
1D	2r	2.f	2d	1.a	2.dd
.	2f	.	2r	.	.
.	.	4e	.	.	4ee
2D	2f	2d	2r	.	4ff
.	.	.	.	.	4dd
=81	=81	=81	=81	=81	=81
2A	2e	2c#	1r	1a	2.ee
1D	1f	1d	.	.	.
.	.	.	.	.	4dd
.	.	.	2r	2a	2dd
=82	=82	=82	=82	=82	=82
2A	2.e	2c	1r	2a	2ee
1c	.	2r	.	1g	2ee
.	4d	.	.	.	.
.	2c	2r	2r	.	2ee
=83	=83	=83	=83	=83	=83
2G	2B	1r	1r	1.g	2dd
1C	1c	.	.	.	1ee
.	.	2r	2r	.	.
=84	=84	=84	=84	=84	=84
2G	2B	1r	2r	2r	2.dd
4D	2r	.	2f	2d	.
4E	.	.	.	.	8cc
.	.	.	.	.	8b
4F	2r	2r	2f	2d	2a
4G	.	.	.	.	.
=85	=85	=85	=85	=85	=85
2A	1r	1r	2e	2c#	1.a
1D	.	.	1f	1d	.
.	2r	2r	.	.	.
=86	=86	=86	=86	=86	=86
2A	1r	2r	2.e	2c	2a
2.E	.	2e	.	1g	2r
.	.	.	4d	.	.
.	2r	2e	2c	.	2r
4F	.	.	.	.	.
=87	=87	=87	=87	=87	=87
2G	1r	2d	2B	1.g	2dd
1C	.	1e	1c	.	2cc
.	2r	.	.	.	2cc
=88	=88	=88	=88	=88	=88
1.G	2r	2.d	2B	2.g	4dd
.	.	.	.	.	4cc
.	2d	.	2r	.	4b
.	.	4c	.	8f	4a
.	.	.	.	8e	.
.	2d	2B	2r	2d	2g
=89	=89	=89	=89	=89	=89
1r	2c	2A	1r	2e	2.a
.	1d	1B	.	4d	.
.	.	.	.	4c	4g#
2r	.	.	2r	2d	2g#
=90	=90	=90	=90	=90	=90
2r	2.c	2A	2r	1e	2a
2C	.	2r	2e	.	2g
.	4B	.	.	.	.
2D	2A	2r	2d	2f#	2dd
=91	=91	=91	=91	=91	=91
2E	2G	1r	2c	1g	2g
1D	1A	.	1d	.	1dd
.	.	2r	.	2f#	.
=92	=92	=92	=92	=92	=92
2E	[1.G	2r	2c	[1.g	2r
2G	.	2d	2B	.	2dd
2C	.	2c	2c	.	2ee
=93	=93	=93	=93	=93	=93
2G	1.G]	2B	2d	1.g]	2dd
1C	.	1c	1e	.	1cc
=94	=94	=94	=94	=94	=94
1.G	1.G	1.B	1.d	1.g	1.dd
==	==	==	==	==	==
*-	*-	*-	*-	*-	*-
!!!CDT: 1525/^1526/-1594/2/2
!!!OCY: Italia
!!!AGN: Mass (Canonic)
!!!AST: renaissance, vocal
!!!ASW: Motet (unidentified)
!!!PWK: Masses, Book 8
!!!RNB: Cadence finals: C
!!!YOR: Le Opere Complete, v. 24, p. 157
!!!YOO: Rome, Italy: Fratelli Scalera
!!!END: 1992//
!!!EED: John Miller
!!!YEC: Copyright 2000, John Miller
!!!YEN: United States of America
!!!YEM: Rights to all derivative electronic formats reserved.
!!!YEM: Refer to licensing agreement for further details.
!!!YEM: This file must be accompanied by the licensing agreement.
!!!YEM: A copy of the licensing agreement may be found at http://www.music-cog.ohio-state.edu/HumdrumDatabases/Palestrina/license.txt
!!!EMD: converted to Humdrum by Bret Aarden
